X:72
T: ICH STUND AN EINEM MORGEN
N: Z0073
O: Europa, Mitteleuropa, Deutschland
R: Sagen - Lied, Romanze
M: 6/4
L: 1/4
K: A
e | A2dB2e | B3A2
B | =c2Bc2d | e3z2
e | A2dB2e | B3A2
B | =c2Bc2d | e3z2
e | =g2=fe2f | e2d=c2
e | d2=cB2e | =c3B2
e | d2=cd2B | A3z2

@@@ Tune index: 9830
